src/images/facebookIcon.svg

<svg width="25" height="25" viewBox="0 0 25 25" fill="none" xmlns="http://www.w3.org/2000/svg">
<rect width="25" height="25" rx="5" fill="#282A33"/>
<path d="M17.8617 15.8594L18.4317 12.1429H14.8659V9.73215C14.8659 8.71515 15.3631 7.72322 16.9602 7.72322H18.5824V4.55916C18.5824 4.55916 17.1109 4.30804 15.7046 4.30804C12.7666 4.30804 10.848 6.08844 10.848 9.31028V12.1429H7.5835V15.8594H10.848V24.8443C11.5034 24.9473 12.1739 25 12.857 25C13.54 25 14.2105 24.9473 14.8659 24.8443V15.8594H17.8617Z" fill="white"/>
</svg>

<svg xmlns="http://www.w3.org/2000/svg" width="25" height="25" fill="none" viewBox="0 0 25 25">
	<rect width="25" height="25" fill="#282A33" rx="5"/>
	<path fill="#fff" d="m17.862 15.86.57-3.717h-3.566v-2.41c0-1.018.497-2.01 2.094-2.01h1.622V4.56s-1.471-.251-2.877-.251c-2.938 0-4.857 1.78-4.857 5.002v2.833H7.583v3.716h3.265v8.985a12.93 12.93 0 0 0 2.009.156c.683 0 1.354-.053 2.009-.156V15.86h2.996Z"/>
</svg>
